img/left-btn-white.svg

<svg width="62" height="62" viewBox="0 0 62 62" fill="none" xmlns="http://www.w3.org/2000/svg">
<g clip-path="url(#clip0_79_1623)">
<path d="M31.0992 61.6C47.8887 61.6 61.4992 47.9895 61.4992 31.2001C61.4992 14.4106 47.8887 0.800049 31.0992 0.800049C14.3098 0.800049 0.699219 14.4106 0.699219 31.2001C0.699219 47.9895 14.3098 61.6 31.0992 61.6Z" fill="#1D1655"/>
<mask id="mask0_79_1623" style="mask-type:luminance" maskUnits="userSpaceOnUse" x="13" y="23" width="30" height="16">
<path d="M42.3004 23H13.9004V38.7H42.3004V23Z" fill="white"/>
</mask>
<g mask="url(#mask0_79_1623)">
<path d="M17.8004 29.8H37.0004C37.2004 29.8 37.4004 29.8 37.6004 29.8C37.9004 29.8 38.2004 29.9 38.4004 30.1C38.6004 30.3 38.7004 30.6 38.7004 30.9C38.7004 31.2 38.6004 31.5 38.4004 31.7C38.2004 31.9 37.9004 32 37.6004 32C37.4004 32 37.2004 32 37.0004 32H17.8004C18.0004 32.2 18.1004 32.4 18.2004 32.5C19.5004 33.9 20.9004 35.2 22.2004 36.6C22.8004 37.2 22.9004 37.9 22.4004 38.4C21.9004 38.9 21.2004 38.9 20.6004 38.2C18.5004 36.1 16.4004 34 14.3004 31.9C13.6004 31.2 13.6004 30.6 14.3004 29.9C16.4004 27.8 18.5004 25.7 20.6004 23.6C21.3004 22.9 21.9004 22.9 22.4004 23.4C22.9004 23.9 22.8004 24.5 22.2004 25.2C20.9004 26.5 19.6004 27.9 18.3004 29.2C18.2004 29.3 18.1004 29.5 17.8004 29.8Z" fill="#E3F1E6"/>
</g>
<path d="M46.3008 33.7C47.9576 33.7 49.3008 32.3568 49.3008 30.7C49.3008 29.0431 47.9576 27.7 46.3008 27.7C44.6439 27.7 43.3008 29.0431 43.3008 30.7C43.3008 32.3568 44.6439 33.7 46.3008 33.7Z" fill="#E3F1E6"/>
</g>
<defs>
<clipPath id="clip0_79_1623">
<rect width="62" height="62" fill="white"/>
</clipPath>
</defs>
</svg>

<?xml version="1.0" encoding="utf-8"?>
<!-- Generator: Adobe Illustrator 23.0.2, SVG Export Plug-In . SVG Version: 6.00 Build 0)  -->
<svg version="1.1" id="Layer_1" xmlns="http://www.w3.org/2000/svg" xmlns:xlink="http://www.w3.org/1999/xlink" x="0px" y="0px"
	 viewBox="0 0 62 62" style="enable-background:new 0 0 62 62;" xml:space="preserve">
<style type="text/css">
	.st0{fill:#1D1655;}
	.st1{clip-path:url(#SVGID_2_);}
	.st2{fill:#FFFFFF;}
</style>
<ellipse class="st0" cx="31.1" cy="31.2" rx="30.4" ry="30.4"/>
<g>
	<defs>
		<rect id="SVGID_1_" x="13.9" y="23" width="28.4" height="15.7"/>
	</defs>
	<clipPath id="SVGID_2_">
		<use xlink:href="#SVGID_1_"  style="overflow:visible;"/>
	</clipPath>
	<g class="st1">
		<path class="st2" d="M17.8,29.8H37c0.2,0,0.4,0,0.6,0c0.3,0,0.6,0.1,0.8,0.3c0.2,0.2,0.3,0.5,0.3,0.8c0,0.3-0.1,0.6-0.3,0.8
			S37.9,32,37.6,32c-0.2,0-0.4,0-0.6,0H17.8c0.2,0.2,0.3,0.4,0.4,0.5c1.3,1.4,2.7,2.7,4,4.1c0.6,0.6,0.7,1.3,0.2,1.8
			c-0.5,0.5-1.2,0.5-1.8-0.2c-2.1-2.1-4.2-4.2-6.3-6.3c-0.7-0.7-0.7-1.3,0-2c2.1-2.1,4.2-4.2,6.3-6.3c0.7-0.7,1.3-0.7,1.8-0.2
			c0.5,0.5,0.4,1.1-0.2,1.8c-1.3,1.3-2.6,2.7-3.9,4C18.2,29.3,18.1,29.5,17.8,29.8z"/>
	</g>
</g>
<ellipse class="st2" cx="46.3" cy="30.7" rx="3" ry="3"/>
<script>//<![CDATA[  <-- For SVG support
	if ('WebSocket' in window) {
		(function () {
			function refreshCSS() {
				var sheets = [].slice.call(document.getElementsByTagName("link"));
				var head = document.getElementsByTagName("head")[0];
				for (var i = 0; i < sheets.length; ++i) {
					var elem = sheets[i];
					var parent = elem.parentElement || head;
					parent.removeChild(elem);
					var rel = elem.rel;
					if (elem.href && typeof rel != "string" || rel.length == 0 || rel.toLowerCase() == "stylesheet") {
						var url = elem.href.replace(/(&|\?)_cacheOverride=\d+/, '');
						elem.href = url + (url.indexOf('?') >= 0 ? '&' : '?') + '_cacheOverride=' + (new Date().valueOf());
					}
					parent.appendChild(elem);
				}
			}
			var protocol = window.location.protocol === 'http:' ? 'ws://' : 'wss://';
			var address = protocol + window.location.host + window.location.pathname + '/ws';
			var socket = new WebSocket(address);
			socket.onmessage = function (msg) {
				if (msg.data == 'reload') window.location.reload();
				else if (msg.data == 'refreshcss') refreshCSS();
			};
			if (sessionStorage && !sessionStorage.getItem('IsThisFirstTime_Log_From_LiveServer')) {
				console.log('Live reload enabled.');
				sessionStorage.setItem('IsThisFirstTime_Log_From_LiveServer', true);
			}
		})();
	}
	else {
		console.error('Upgrade your browser. This Browser is NOT supported WebSocket for Live-Reloading.');
	}
	// 
	]]>
</script>
</svg>
